X: 21451
T: The Shepherd of Neath
%R: reel
B: James Oswald "The Caledonian Pocket Companion" v.2 p.145 #1
Z: 2018 John Chambers <jc:trillian.mit.edu>
M: C|
L: 1/8
K: F
|:"_Slow"\
f4 c2f2 | e3d c2d2 | (dc)(BA) G2(cB) | (B4 A2)A2 |\
A2 d4 c2 | {c}T=B3A G2c2 | =B2c2 (ed)(cB) | (=B4 c2)f2- |
f2 e4 d2- | d2 c4 (BA) | B2(ec) (BA)(GF) | (F4 E2)(FE) |\
D2 d4 c2 | B2(AB) G2F2 | E2F2 (AG)(FE) | F4 Hz4 :|
|:\
c4 G2c2 | (B4 A2)e2 | f2(ed) g2(fe) | (d4 ^c2)a2 |\
a2(ga) b2a2 | g2f2 Te2d2 | ^c2de f2(ef) | d6 f2- |
f2 e4 d2- | d2 c4 (BA) | B2(dc) (BA)(GF) | (F4 E2)(FE) |\
D2 d4 c2 | (Bc)(AB) (GA)(FG) | E2F2 (AG)(FE) | F4 Hz4 :|
|:\
f4 (fc)(ag) | (gf) f4 (fe) | (ed)(fd) (dc)(fc) | (B4 A2)a2 |\
g2(fe) d2c2 | (=B/A/)G G4 c2 | (=Bd)(cf) (ea)(g=B) | (=B4 c2)f2 |
f4 (fe)(ed) | (dc) c4 (BA) | d3c (BA)(GF) | (F4 E2)(FE) |\
D2 d4 (cb) | (ag)(fd) (cA)(GF) | TE2F2 (AG)(FE) | F4 Hz4 :|


